X:118
T:B118-  Digby's Farewell
S:(2nd/3)
Q:1/4=120
L:1/4
M:3/4
K:Gm
d|ggf|d(c/2B/2) (A/2G/2)|^FG(A/2B/4c/4)|B2A|\
ggf|dBe|cA^F|G2:|d|ggf|f3/2g/2 a/4g3/4|^fdd|d3/2(c/2 B)|\
fAA|(A/2c/2) (d/2c/2) (e/2d/2)|^FDD|D2d|\
A3/2B/2 (A/2=B/4c/4)|=BBg|d3/2e/2 (f/2d/2)|e2d|\
c(f/2g/2) (f/2d/2)|c3/2B/2A|(B/2c/2) (A3/2G/2)|.G2|]
